X:79802
T:Banks of Locheil
H:
C:
B:
O:Kevin Fraser
Z:Kevin Fraser
Q:3/8=60
K:HP
M:12/8
L:1/8
R:Aire
U: R = ///
U: r = //
U: V = !accent!
V:M gstem=up stem=down name="Melody"
V:H gstem=up stem=down name="Harmony"
V:C gstem=up stem=down name="C-Harmony"
V:S gstem=up stem=down dyn=up stafflines=1 clef=perc middle=G name="Snare" sname="Snare"
V:B gstem=up stem=down clef=none dyn=up name="Bass"
V:T gstem=up stem=down clef=none dyn=up name="Tenor"
I:MIDI=program 110
%%MIDI gracedivider 4
%%MIDI gchord
%%MIDI beatstring 
%%landscape
% I:linebreak $
% %score {M H}
%%MIDI program 109 #bagpipes
%%MIDI vol 100
%%barsperscore 4
[V:M][|: e | {g}A>{e}G{d}B {g}A2 {GAG}A | {ag}a>{f}ge {g}d<e{gf}g | {g}G<{d}B{e}A {g}G2 {e}B | {Gdc}d>e{gf}g {ef}e<dB |
[V:M]   x  |  {gBd}B<{e}AG {g}A2 {GAG}A | {ag}a>{f}ge {g}d<e{gf}g | {a}B<{d}G{e}B {Gdc}d>e{gf}g | {Bd}B2 {e}A {GAG}A2:|]
[V:M][|:{gf}g | a2{GdG}a   {g}a2      e | {ag}a>{f}ge {g}d<e{gf}g | {g}G<{d}B{e}A {g}G2 {e}B | {Gdc}d>e{gf}g {ef}e<dB |
[V:M]   x  |  {gBd}B<{e}AG {g}A2 {GAG}A | {ag}a>{f}ge {g}d<e{gf}g | {a}B<{d}G{e}B {Gdc}d>e{gf}g | {Bd}B2 {e}A {GAG}A2:|]


